!!!COM: Palestrina, Giovanni Perluigi da
!!!OPR: Missa Sicut lilium inter spinas
!!!OMD: Credo
!!!OTL: Crucifixus
**kern	**kern	**kern	**kern
*Ibass	*Itenor	*Icalto	*Icant
!Bassus	!Tenor	!Altus	!Cantus
*clefF4	*clefGv2	*clefG2	*clefG2
*k[]	*k[]	*k[]	*k[]
*A:aeo	*A:aeo	*A:aeo	*A:aeo
*M4/2	*M4/2	*M4/2	*M4/2
=85	=85	=85	=85
0A	1r	0r	0r
.	[1e	.	.
=86	=86	=86	=86
1G#	1e]	0r	0r
1A	1c	.	.
=87	=87	=87	=87
1D	1f	0r	0r
2r	1e	.	.
2A	.	.	.
=88	=88	=88	=88
2A	2r	0r	0ee
2.c	2A	.	.
.	2A	.	.
4B	.	.	.
4A	[2c	.	.
4G	.	.	.
=89	=89	=89	=89
1A	4c]	0a	1cc
.	4d	.	.
.	4e	.	.
.	4c	.	.
1D	2d	.	1ff
.	2d	.	.
=90	=90	=90	=90
1E	1B	1g#	1ee
1A	2.c	1a	2r
.	.	.	2a
.	8d	.	.
.	8e	.	.
=91	=91	=91	=91
0r	1.f	2d	2a
.	.	2a	2.cc
.	.	2a	.
.	.	.	4dd
.	4e	[2cc	4ee
.	4d	.	4ff
=92	=92	=92	=92
1A	1c	4cc]	1ee
.	.	4b	.
.	.	4a	.
.	.	4g	.
2A	1r	2a	2ff
[2c	.	4g	[2ee
.	.	4f	.
=93	=93	=93	=93
4c]	0r	2e	4ee]
4B	.	.	4dd
4A	.	2f	4cc
4G	.	.	4b
2A	.	1e	2.cc
2A	.	.	.
.	.	.	8dd
.	.	.	8ee
=94	=94	=94	=94
1D	1r	2d	1ff
.	.	2a	.
1A	2r	2.cc	2ee
.	2A	.	2a
.	.	4b	.
=95	=95	=95	=95
0r	4A	1a	2cc
.	4B	.	.
.	4c	.	2cc
.	4d	.	.
.	2e	2g#	2b
.	2f	[2a	2a
=96	=96	=96	=96
1r	2d	2a]	1b
.	2e	2g#	.
2r	2.f	2a	[1a
2D	.	2d	.
.	4e	.	.
=97	=97	=97	=97
4D	1d	2f	1a]
4E	.	.	.
4F	.	2f	.
4G	.	.	.
2A	2c#	2e	1r
2B-	[2d	2d	.
=98	=98	=98	=98
2G	2d]	1e	1r
2A	2c#	.	.
1B-	1d	2d	2r
.	.	[2f	[2dd
=99	=99	=99	=99
1A	1r	2f]	2dd]
.	.	2e	2cc
1d	2r	2.f	2.a
.	[2f	.	.
.	.	4g	4b
=100	=100	=100	=100
1c	2f]	2a	1cc
.	2e	2.g	.
2.A	1a	.	1cc
.	.	4f	.
.	.	[2f	.
4B-	.	.	.
=101	=101	=101	=101
2c	1g	4f]	2cc
.	.	4e	.
2c	.	2e	1cc
1F	1f	1a	.
.	.	.	4b-
.	.	.	4a
=102	=102	=102	=102
1G	2e	2g	1b-
.	1d	2f	.
1A	.	[1e	[1a
.	4c#	.	.
.	4B	.	.
=103	=103	=103	=103
2r	2c#	1e]	0a]
2A	2e	.	.
2d	2f	2r	.
2d	2f	2d	.
=104	=104	=104	=104
2c	2e	2a	0r
2A	2c	2a	.
2.c	2.e	2g	.
.	.	2e	.
4B	4d	.	.
=105	=105	=105	=105
2A	2c	2.f	0r
2.B-	2.d	.	.
.	.	4e	.
.	.	2d	.
4A	4c	.	.
4G	4B-	[2e	.
4F	4A	.	.
=106	=106	=106	=106
2.G	2.B-	4e]	2r
.	.	4d	.
.	.	1d	2dd
4F	4A	.	.
1E	1G	.	2gg
.	.	2c#	2gg
=107	=107	=107	=107
0D	1A	4d	2ff
.	.	4e	.
.	.	4f	2dd
.	.	4g	.
.	1d	1a	2.ff
.	.	.	4ee
=108	=108	=108	=108
0r	2.g	2.b	2dd
.	.	.	2.ee
.	4f	4a	.
.	2e	2g	.
.	.	.	4dd
.	[2a	[2cc	4cc
.	.	.	4b
=109	=109	=109	=109
0r	4a]	4cc]	4a
.	4g	4b	4b
.	4f	1a	2cc
.	4e	.	.
.	2d	.	1b
.	2e	2g#	.
=110	=110	=110	=110
2r	2f	2a	2r
2A	2e	2a	2cc
1d	1f	1a	1dd
=111	=111	=111	=111
2c	2g	1cc	2ee
2A	2a	.	1ff
1c	[1g	1cc	.
.	.	.	[2ee
=112	=112	=112	=112
1G	2g]	1b-	2ee]
.	2f	.	1dd
1A	1e	2a	.
.	.	[2e	4cc#
.	.	.	4b
=113	=113	=113	=113
2r	1A	2e]	0cc#
1A	.	2e	.
.	1r	1a	.
2A	.	.	.
=114	=114	=114	=114
1d	0r	2f	0r
.	.	2a	.
2c	.	2.cc	.
2e	.	.	.
.	.	4b	.
=115	=115	=115	=115
2.f	1r	2a	2r
.	.	4d	1a
4e	.	4e	.
2.d	2r	4f	.
.	.	4g	.
.	[2d	[2f	2a
4c	.	.	.
=116	=116	=116	=116
1B-	2d]	2f]	1dd
.	2d	4e	.
.	.	4d	.
1A	1a	2e	2cc
.	.	[2a	2ee
=117	=117	=117	=117
1d	2f	2a]	2.ff
.	2a	2f	.
.	.	.	4ee
[1G	2.b-	1g	2dd
.	.	.	2cc
.	4a	.	.
=118	=118	=118	=118
1G]	2g	2r	1b-
.	2f	2d	.
2.A	1e	2d	1a
.	.	2c	.
4G	.	.	.
=119	=119	=119	=119
4F	1d	2.f	2r
4E	.	.	.
2D	.	.	2dd
.	.	4f	.
1A	1r	2e	2dd
.	.	[2a	2cc
=120	=120	=120	=120
1D	2r	4a]	2.ff
.	.	4f	.
.	2d	2b-	.
.	.	.	4ff
1r	2d	[1a	2ff
.	2c	.	[2ee
=121	=121	=121	=121
1r	2.f	1a]	4ee]
.	.	.	4dd
.	.	.	1dd
.	4e	.	.
1A	2.e	1r	.
.	.	.	4cc
.	4d	.	4b
=122	=122	=122	=122
2A	2e	1r	4cc
.	.	.	4b-
2F	1f	.	4a
.	.	.	4g
2.B-	.	2r	2f
.	4e	2d	2g
4B-	4d	.	.
=123	=123	=123	=123
1A	1e	2d	1a
.	.	2c	.
4F	1A	2.f	2r
4G	.	.	.
4A	.	.	2a
4B	.	4f	.
=124	=124	=124	=124
2.c	2r	1e	2a
.	2e	.	2g
4B	.	.	.
1A	2e	4c	2.cc
.	.	4d	.
.	2c	4e	.
.	.	4f#	4cc
=125	=125	=125	=125
2G	2.d	1g	2b
2G	.	.	2.dd
.	4e	.	.
4D	4f	2a	.
4E	4g	.	4cc
4F	[2a	2f	4a
4G	.	.	4b
=126	=126	=126	=126
4A	2a]	2e	4cc
4B	.	.	4dd
2c	2.g	2e	2.ee
2d	.	1a	.
.	4f	.	4dd
2D	4f	.	[2dd
.	8e	.	.
.	8d	.	.
=127	=127	=127	=127
1A	1e	1a	2dd]
.	.	.	2cc#
[1D	[1f#	[1a	[1dd
=128	=128	=128	=128
1D]	1f#]	1a]	1dd]
*-	*-	*-	*-
!!!CDT: 1525/^1526/-1594/2/2
!!!OCY: Italia
!!!AGN: Mass (Parody)
!!!AST: renaissance, vocal
!!!ASW: Motet 1569 (Palestrina)
!!!PWK: Masses, Book 5
!!!RNB: Cadence finals: D
!!!YOR: Le Opere Complete, v. 15, p. 130
!!!YOO: Rome, Italy: Fratelli Scalera
!!!END: 1992//
!!!EED: John Miller
!!!YEC: Copyright 2000, John Miller
!!!YEN: United States of America
!!!YEM: Rights to all derivative electronic formats reserved.
!!!YEM: Refer to licensing agreement for further details.
!!!YEM: This file must be accompanied by the licensing agreement.
!!!YEM: A copy of the licensing agreement may be found at http://www.music-cog.ohio-state.edu/HumdrumDatabases/Palestrina/license.txt
!!!EMD: converted to Humdrum by Bret Aarden
